X: 8
T:Rosin The Beau
M:3/4
L:1/4
C:
R:Key of D
K:D
A,|DDD|FED|FAA|B2B|!AFD|DEF|B,3|B,2A,|DDD|!FED|FAA|B2B|AFD|EFE|!D3|D2A|A
FA|
ABc|d2B|!d2B|AFD|DEF|B,3|B,2A,|!DDD|FED|FAA|B2B|AFD|EFE|D3||
